X: 4
T: Pachelbel's Frolics
R: reel
M: 4/4
L: 1/8
K: Cmaj
((3GAB)|(cB)cd (cd)ef|(g^f)ga (ge)dc|(AG)AB (cd)cA|(GE)cA (GE)CE|(FE)FG (AG)AB|(cB)cd (eg)ag|(fe)dc (Ac)Bd|edcB c2 :||:(gf)|egcg egcg|dgBg dgBg|ceAe ceAe|GcEc GcEc|(FE)FG (AG)AB|(cB)cd (eg)ag|(fe)dc (Ac)Bd|edcB c2 :|


Tune 487	Setting 13395

